dist/svg/address.svg

<!-- Generated by Trend Micro Style Portal -->
<svg version="1.1" xmlns="http://www.w3.org/2000/svg" width="16" height="16" viewBox="0 0 16 16">
  <title>address</title>
  <path fill="rgb(34,34,34)" d="M14 5v0zM14 2v3c0.033 0.004 0.072 0.007 0.111 0.007 0.447 0 0.817-0.325 0.888-0.752l0.001-0.005v-1.5c-0.071-0.432-0.442-0.757-0.889-0.757-0.039 0-0.078 0.003-0.116 0.007l0.004-0zM14 2v0zM14 6v3c0.033 0.004 0.072 0.007 0.111 0.007 0.447 0 0.817-0.325 0.888-0.752l0.001-0.005v-1.5c-0.071-0.432-0.442-0.757-0.889-0.757-0.039 0-0.078 0.003-0.116 0.007l0.004-0zM14 10.060v3c0.033 0.004 0.072 0.007 0.111 0.007 0.447 0 0.817-0.325 0.888-0.752l0.001-0.005v-1.5c-0.071-0.432-0.442-0.757-0.889-0.757-0.039 0-0.078 0.003-0.116 0.007l0.004-0zM13 1v14c0 0.552-0.448 1-1 1v0h-10c-0.552 0-1-0.448-1-1v0-14c0-0.552 0.448-1 1-1v0h10c0.552 0 1 0.448 1 1v0zM10 9.34v0c-0.541-0.541-1.214-0.949-1.967-1.172l-0.033-0.008v-0.46c0.602-0.352 1-0.996 1-1.732 0-1.105-0.895-2-2-2s-2 0.895-2 2c0 0.736 0.398 1.38 0.991 1.727l0.009 0.005v0.46c-0.786 0.231-1.459 0.64-2 1.18l0-0c-0.64 0.66-2 2.66 0.26 2.66h5.46c2.28 0 0.89-2 0.28-2.66z"></path>
</svg>

<svg width="16" height="16" viewBox="0 0 16 16" fill="rgb(34, 34, 34)" xmlns="http://www.w3.org/2000/svg"><title>address</title><path d="M14 2V5C14.033 5.004 14.072 5.007 14.111 5.007C14.558 5.007 14.928 4.682 14.999 4.255L15 4.25V2.75C14.929 2.318 14.558 1.993 14.111 1.993C14.072 1.993 14.033 1.996 13.995 2H13.999H14ZM14 6V9C14.033 9.004 14.072 9.007 14.111 9.007C14.558 9.007 14.928 8.682 14.999 8.255L15 8.25V6.75C14.929 6.318 14.558 5.993 14.111 5.993C14.072 5.993 14.033 5.996 13.995 6H13.999H14ZM14 10.06V13.06C14.033 13.064 14.072 13.067 14.111 13.067C14.558 13.067 14.928 12.742 14.999 12.315L15 12.31V10.81C14.929 10.378 14.558 10.053 14.111 10.053C14.072 10.053 14.033 10.056 13.995 10.06H13.999H14ZM13 1V15C13 15.552 12.552 16 12 16H2C1.448 16 1 15.552 1 15V1C1 0.448 1.448 0 2 0H12C12.552 0 13 0.448 13 1ZM10 9.34C9.459 8.799 8.786 8.391 8.033 8.168L8 8.16V7.7C8.602 7.348 9 6.704 9 5.968C9 4.863 8.105 3.968 7 3.968C5.895 3.968 5 4.863 5 5.968C5 6.704 5.398 7.348 5.991 7.695L6 7.7V8.16C5.214 8.391 4.541 8.8 4 9.34C3.36 10 2 12 4.26 12H9.72C12 12 10.61 10 10 9.34Z" fill="rgb(34, 34, 34)" fill-opacity="1.00"/></svg>
